X: 28064
T: Mr Duncan's Delight
R: jig
M: 6/8
K: Dmajor
A2G|:F2D DED|FED AGF|G2E EFE|GFE BAG|
F2D DED|FED AGF|GBG AFD|1 E3 D2G:|2 E3 Dag||
|:fdf agf|eAe efg|fdf agf|eAAA2g|
fdf agf|eAe efg|afa gfe|1 d3 dag:|2 d3||

